X:1
T:Title
%%score { ( 1 3 ) | 2 }
L:1/8
Q:1/4=113
M:6/8
K:Eb
V:1 treble nm="Grand Piano"
V:3 treble 
V:2 bass 
V:1
 G2 F E2 F | G3 B3 | [Ec]2 [_DB] [CA]2 [Ec] | [EB]6 | [FA]2 [EG] [DF]2 [EG] | [FA]3 [GB]3 | %6
w: Chas.~H.~Gabriel * * *||||||
 [Bd]2 [Ac] [GB]2 [FA] | G6 | G2 F E2 G | B3 B3 | =A2 G F2 e | d6 | e2 e d2 c | B3 E3 | %14
w: ||||||||
 [EG]2 [GB] [FA]2 [A,DF] | [G,E]6 | [B,DF]2 [B,DF] B,3- | [B,-FA]2 [B,-FA] [B,FA]3 | %18
w: ||||
 [B,EG]2 [B,EG] [EF=A]2 [EFA] | [DFB]3 [CEc]2 [Ad] | [Ge]2 e d2 c | B3 E3 | [EG]2 [GB] [FA]2 [DF] | %23
w: |||||
 E6 |] %24
w: |
V:2
 [E,B,E]2 [E,A,E] [E,G,]2 [E,A,E] | [E,B,E]3 [E,G,E]3 | [A,,A,]2 [A,,A,] [A,,A,]2 [A,,A,] | %3
 [E,G,]6 | [B,,B,]2 [B,,B,] [B,,B,]2 [B,,B,] | [B,,B,]3 [B,,B,]3 | %6
 [B,,B,]2 [B,,B,] [B,,B,]2 [B,,B,] | [E,B,E]6 | [E,B,E]2 [E,A,E] [E,G,]2 [E,B,E] | %9
 [E,G,E]3 [E,G,E]3 | [F,E]2 [F,B,E] .[F,=A,E]2[K:treble] [F,A,F] | [B,F]6 | %12
 [G,B,E]2 [G,B,E] [A,B,E]2[K:bass] [A,E] | [E,G,E]3 [E,G,]3 | [B,,B,]2 [B,,B,] [B,,B,]2 B,, | E,6 | %16
 B,,2 B,, .B,,3 | B,,2 B,, .B,,3 | E,2 E, C,2 C, | B,,3 B,,2 [B,,B,] | %20
 [E,B,]2 [G,B,E] [A,B,E]2 [A,E] | [E,G,E]3 [E,G,]3 | [B,,B,]2 [B,,B,] [B,,B,]2 [B,,A,] | [E,G,]6 |] %24
V:3
 x6 | x6 | x6 | x6 | x6 | x6 | x6 | x6 | x6 | x6 | x6 | z3 A,3 | x6 | x6 | x6 | x6 | z3 .[DF]3 | %17
 x6 | x6 | x6 | x6 | x6 | x6 | x6 |] %24

